X: 12
T:Ld. Cathcarts Minuet. BC.12
M:3/4
L:1/4
Q:90
S:Benjamin Cooke MS.circa 1770, F.Kidson Coll.
R:Minuet
O:England
A:Uncertain, probably northern
N:Charles,1721-1776, served with the Duke Of Cumberland in
N:Flanders,Scotland,and Holland, and was wounded at Fontenoy, along with
N:everybody else,seemingly.CGP.
Z:vmp.John Bagnall
K:G
B/d/G/B/A/c/ |B d g | B A/G/A/F/ | G2 A |!
 B/^c/ d g | ^c e a | f e/d/e/^c/ |d3 :|!
|:d B/d/B/d/ | e c2 | c A/c/A/c/ | d"tr"B2 |!
 B G/B/G/B/ | c A/c/A/c/ |\
 B/d/g B | B A2 |!
B/d/G/B/A/c/ | B d g | B A/G/A/F/ | G3 :|]
